X:1
T:Title
%%score { 1 | ( 2 3 ) }
L:1/8
Q:1/4=100
M:3/4
K:G
V:1 treble nm="Grand Piano"
V:2 bass 
V:3 bass 
V:1
 B>B B3 [DA] | [EG]>E D4 | [DG]>A B3 G | [GB]2 [FA]2 z2 | [DGB]>[DGB] [DGB]3 [CFA] | %5
w: Robert~Lowry * * *|||||
 [B,EG]>[A,^DF] [G,E]4 | [G,B,D]>[B,DG] [DGB]3 [CDA] | [CDA]2 [B,DG]2 z2 | B>c d3 B | c>B A4 | %10
w: |||||
 A>B c3 c | B>A B4 | G>A B3 G | [EA]>[EG] [G,CE]4 | [G,B,D]>[B,DG] [DGB]3 [CDA] | %15
w: |||||
 [CDA]2 [B,DG]2 z2 |] %16
w: |
V:2
 [G,D]>[G,D] [G,D]3 [B,,G,] | [C,G,]>[E,G,C] [G,B,]4 | [B,,G,]>[D,F,D][K:treble] [G,G]3 [G,B,D] | %3
 [D,D]2 [D,D]2 z2 | G,>G, G,3 D, | E,>B,, z2 C2 | D,>D, D,3 D, | G,,2 G,,2 z2 | %8
 [G,D]>[G,D] [G,B,D]3 [G,D] | [F,A,D]>[G,D] [D,F,D]4 | [D,F,D]>[D,G,D] [D,A,D]3 [D,A,D] | %11
 [D,G,D]>[D,F,D][K:treble] [G,D]4 | [G,B,D]>[G,CD] [G,DG]3 [G,B,D] | [C,C]>[C,C] C,4 | %14
 D,>D, D,3 D, | G,,2 G,,2 z2 |] %16
V:3
 x6 | x6 | x2[K:treble] x4 | x6 | x6 | z2 C,4 | x6 | x6 | x6 | x6 | x6 | x2[K:treble] x4 | x6 | %13
 x6 | x6 | x6 |] %16

